X:1
T:Title
%%score [ 1 2 3 4 ]
L:1/8
Q:1/4=120
M:none
K:Eb
V:1 treble nm="S."
V:2 treble nm="A."
V:3 treble-8 nm="T."
V:4 bass nm="B."
V:1
 B16 c8"^O quam gloriosum est regnum""^In Festo Omnium Sanctorum" c4 c2 c2 c3 d e4 f6 f2 B2 e3 d"^Tomás Luis de Victoria""^c. 1548-1611"cB c2 | %1
w: O * quam glo- ri- o * * * sum est re * * * *|
 B4 =A2 B4 B8 z4 z2 E2 _A2 B2 cBcd e3 d | c2 BA G3 F/E/ F4 G2 G2 B4 z2 B2 e6 d2 | %3
w: * * * gnum in quo cum Chri * * * * *|* * * * * * * sto, in quo, in quo cum|
 e3 d cB B4 =A2 B8 z4 | e8"^O quam - 2 -" d4 c8 B4 | c8 d4 e8 d4 e4 c4 B8 | %6
w: Chri * * * * * sto|gau- dent, gau- dent|om- nes san- cti, om- nes san-|
 B4 z8 z4 z2 d2 B3 c d2 B2 | c4 B4 c4 d2 d2 e3 d c2 B2"^___" =A2 | %8
w: cti a- mi- cti sto- lis|al * * bis, a- mi- cti sto- lis al|
 B4 =A2 B8"^O quam - 3 -" z8 f8 e4 | d4 c6 BABG A3 GGF/E/ F3 G A4 B4 z4 e8 | %10
w: * * bis se- quun-|tur a * * * * * * * * * * * * gnum, se-|
 d4 c4 B3 A G2 FE F4 E4 z2 B2 c4 | d4 e2 c4 B4 =A2 B2 B2 G2 !courtesy!=A2 B2 G2 F2 f2 | %12
w: quun- tur a * * * * * gnum quo- cum-|que i * * e- rit, quo- cum- que i- e- rit, quo-|
 d2 =e2 f6 _e2"^O quam - 4 -" d2 c3 B B4 =AG A2 A2 | B16- B24 | %14
w: cum- que i * * * * * * * * e-|rit. *|
V:2
 F8 G8 A8 A4 A2 A2 A3 B c2 B2 A6 A2 G4 C3 DEF | G3 F E4 D2 G8 F4 z4 z2 E2 A6 G2 | %2
w: O * * quam glo- ri- o * * * * sum est re * * *|* * * * * gnum in quo cum|
 A2 F3 E E4 D2 E2 B,2 E2 F2 G3 F E2 C2 F4 | B,2 E2 G2 G2 F4 D2 B,CDE F3 G A2 | %4
w: Chri * * * * sto, in quo cum Chri * * * *|sto, in quo cum Chri- sto gau * * * * * *|
 G2 CD EFGA B2 FGAB c2 G2 EFGA B2 | E4 A4 F2 B4 =AG A4 B4 G4 _A4 G2 FE F4 | %6
w: dent, gau * * * * * * * * * * * dent, gau * * * *|dent om- nes san * * * cti, om- nes san * * *|
 G2 G2 F3 G E2 F2 G4 F2 F2 G3 E F2 G2 | A3 F GA B4 =A2 B2 F2 G6 G2 F2 | %8
w: cti a- mi- cti sto- lis al- bis, a- mi- cti sto- lis|al * * * * * bis, a- mi- cti sto-|
 =E2 F4 D4 z2 F4 _E4 D4 C3 B, B,4 =A,2 | B,2 B4 A4 G4 F3 E E4 D2 C4 B,2 B4 A4 GF E2 C2 | %10
w: lis al- bis se- quun- tur a * * *|gnum, se- quun- tur a * * * * gnum, se- quun * * * tur|
 F3 G A2 G3 F F3 E E4 DC B,2 C2 D4 z4 | z4 z2 F2 D2 D2 E2 C2 F4 z2 F2 F2 E2 D2 C2 | %12
w: a * * * * * * * * * * * gnum|quo- cum- que i- e- rit, quo- cum- que i- e-|
 B,2 B2 B2 =A2 B6 _AG F2 G2 F4 z2 F2 | D2 E2 F3 D F2 G3 D F2 G2 G2 F16- F4 | %14
w: rit, quo- cum- que i * * * e- rit, quo-|cum- que i * * * * * * e- rit. *|
V:3
 B8 e16 f4 f2 f2 e3 d c2 e4 dc d2 d2 e4 z2 e2 c2 | d2 e4 f4 e2 B2 e6 d2 e3 d c2 B2 A4 B2 E2 | %2
w: O * quam glo- ri- o * * * * * * sum est re *|* * * gnum, in quo cum Chri * * * * sto, in|
 A2 B2 c4 B8 z2 F2 B6 =A2 B4 | G2 B2 e2 e2 d2 c2 Bcde f2 FGABcd | %4
w: quo cum Chri- sto, in quo cum Chri-|sto, in quo cum Chri * sto * * * * gau * * * * *|
 ef g2 c2 B3 cde f2 cdef g3 f/e/ d2 | c2 e4 f4 g3 fed e4 f2 g4 e4 f3 e e4 d2 | %6
w: * * * dent, gau * * * * * * * * * * * *|dent om- nes san * * * * cti, om- nes san * * *|
 e2 e2 d3 B c2 d2 e4 d2 B2 e3 c B2 e2 | ABcd ef g2 f4 B4 z2 B2 e3 d c2 | %8
w: cti a- mi- cti sto- lis al- bis, a- mi- cti sto- lis|al * * * * * * * bis, a- mi- cti sto-|
 B2 c4 B2 f3 e d2 c4 B2 B4 AG F4 G2 E2 | F4 f4 e6 _d2 c4 B2 f4 e4 =d4 c3 B B4 =A2 | %10
w: lis al- bis se * * quun- tur a * * * * *|gnum, se- quun- tur a- gnum, se- quun- tur a * * *|
 Bcde f2 e3 d B2 c4 B4 z4 z2 B2 G2 =A2 | BAGF E2 F2 G2 B2 c4 d4 e2 c3 B B4 =A2 | %12
w: * * * * * * * * * gnum quo- cum- que|i * * * * e- rit, quo- cum- que i * * * *|
"^___" B2 B2 c2 f2 d2 e2 f6 e2 d2 cB c2 c2 | B4 z2 f2 d2 e2 g2 f3 e e4 dc d16 | %14
w: * e- rit, quo- cum- que i * * * * * e-|rit, quo- cum- que i * * * e * rit.|
V:4
 z8 E,8 A,8 F,4 F,2 F,2 A,6 G,2 F,6 F,2 E,4"^_________" A,6 | %1
w: O * quam glo- ri- o * * sum est re|
 G,2 C4 B,4 E,4 z2 E,2 A,2 B,2 C3 B, A,2 G,2 F,4 E,4 | z8 z2 B,,2 E,6 D,2 E,3 D, C,4 B,,2 B,,2 | %3
w: * * * gnum in quo cum Chri * * * * sto,|in quo cum Chri * * sto, in|
"^This edition ? Andrew Sims 2011" E,6 E,2 F,4 B,,2 B,,3 C,D,E, F,4 | %4
w: quo cum Chri- sto gau * * * *|
 C,2 C,3 D,E,F,G,A, B,2 F,G,A,B, C4 G,4 | A,8 B,4 C8 B,4 C4 A,4 B,8 | %6
w: dent, gau * * * * * * * * * * * dent|om- nes san- cti, om- nes san-|
 E,2 E,2 B,3 G, A,2 F,2 E,4 B,,4 z8 | z8 z4 z2 B,,2 E,6 E,2 F,2 | %8
w: cti a- mi- cti sto- lis al- bis,|a- mi- cti sto-|
 G,2 F,4 B,,4 B,4 A,4 G,4 F,3 E, D,4 C,4 | B,,4 z16 B,4 A,4 G,4 F,4 E,3 D, C,4 | %10
w: lis al- bis se- quun- tur a * * *|gnum, se- quun- tur a * * *|
 B,,4 z8 z4 z2 B,2 G,2 A,2 B,A,G,F, E,2 F,2 | %11
w: gnum quo- cum- que i * * * * e-|
 B,,2 B,2 G,2 =A,2 B,_A,G,F, E,2 F,2 B,,4 z2 F,2 D,2 E,2 F,4 | G,4 F,4 z4 z2 F,2 D,2 E,2 F,6 F,2 | %13
w: rit, quo- cum- que i * * * * e- rit, quo- cum- que i-|e- rit, quo- cum- que i- e-|
 B,,2 E,2 D,2 B,,2 B,A,G,F, E,2 D,2 E,2 E,2 B,,16- B,,4 | %14
w: rit, quo- cum- que i * * * * * * e- rit. *|

